X:697
M:C|
L:1/8
K:B_
d|fede fbab|gfed cBAF|fede fbab|agf=e f2 fd|fdgf ecfe|
dBed cBAF|~B2 dB fBdB|AfeA ~B2 B||

